img/external/jetbrains-variant-4.svg

<svg id="Layer_1" data-name="Layer 1" xmlns="http://www.w3.org/2000/svg" xmlns:xlink="http://www.w3.org/1999/xlink" width="263" height="147" viewBox="0 0 263 147">
  <defs>
    <linearGradient id="linear-gradient" x1="54.4568" y1="122.5936" x2="251.779" y2="10.2057" gradientUnits="userSpaceOnUse">
      <stop offset="0" stop-color="#00adee"/>
      <stop offset="1" stop-color="#9f76a6"/>
    </linearGradient>
    <linearGradient id="linear-gradient-2" x1="80.247" y1="38.7607" x2="241.2622" y2="10.9511" gradientUnits="userSpaceOnUse">
      <stop offset="0" stop-color="#ec037c"/>
      <stop offset="1" stop-color="#9f76a6"/>
    </linearGradient>
    <linearGradient id="linear-gradient-3" x1="75.7205" y1="33.5582" x2="127.8253" y2="123.9392" gradientUnits="userSpaceOnUse">
      <stop offset="0" stop-color="#ec037c"/>
      <stop offset="1" stop-color="#5c2d90"/>
    </linearGradient>
    <linearGradient id="linear-gradient-4" x1="7.4647" y1="44.578" x2="129.4543" y2="125.0813" gradientUnits="userSpaceOnUse">
      <stop offset="0" stop-color="#44c7f4"/>
      <stop offset="1" stop-color="#5c2d90"/>
    </linearGradient>
  </defs>
  <g>
    <path d="M261.1839,10.3622a9.6784,9.6784,0,0,0-14.7448-8.2463l0-.0006L20.6942,136.0746h0a4.6974,4.6974,0,1,0,4.1326,8.4348h0q0.09-.0467.1784-0.097l230.5273-125.25a9.653,9.653,0,0,0,1.1508-.6253l0.0332-.018-0.0014-.0023A9.6682,9.6682,0,0,0,261.1839,10.3622Z" fill="url(#linear-gradient)"/>
    <path d="M261.1839,10.3622A9.6782,9.6782,0,0,0,251.5057.684q-0.2747,0-.5456.0157-0.25.0143-.4975,0.041L76.7981,25.4187A13.7347,13.7347,0,1,0,83.5355,51.983L252.8044,19.9512a9.6363,9.6363,0,0,0,1.0358-.196l0.02-.0039,0-.0008A9.6811,9.6811,0,0,0,261.1839,10.3622Z" fill="url(#linear-gradient-2)"/>
    <path d="M145.2028,123.63a17.2372,17.2372,0,0,0-3.0637-9.4254L91.3045,32.3521A13.7366,13.7366,0,0,0,66.1132,42.9507h0a13.6332,13.6332,0,0,0,1.043,2.4984s45.2334,86.37,45.5824,86.9979q0.3089,0.556.6567,1.0861h0A17.32,17.32,0,0,0,145.2028,123.63Z" fill="url(#linear-gradient-3)"/>
    <path d="M145.2028,123.63a17.2979,17.2979,0,0,0-7.63-13.9419h0a17.3061,17.3061,0,0,0-2.6994-1.4911L9.5484,38.9679a6.064,6.064,0,0,0-6.5074,10.187l114.3963,88.704A17.3191,17.3191,0,0,0,145.2028,123.63Z" fill="url(#linear-gradient-4)"/>
    <g>
      <rect x="69" y="51" width="70" height="70"/>
      <g>
        <rect x="75.038" y="107.8746" width="26.2498" height="4.375" fill="#fff"/>
        <g>
          <path d="M74.7429,69.4315L76.78,67.5082a2.31,2.31,0,0,0,1.7929,1.0594A1.33,1.33,0,0,0,79.8607,66.97V59.75h3.1456v7.2366a4.2386,4.2386,0,0,1-1.1246,3.2108,4.2989,4.2989,0,0,1-3.1293,1.1572A4.6592,4.6592,0,0,1,74.7429,69.4315Z" fill="#fff"/>
          <path d="M83.7394,59.75h9.1761v2.673H86.8688v1.744H92.345v2.4937H86.8688V68.47H92.997v2.6893H83.7394V59.75Z" fill="#fff"/>
          <path d="M97.049,62.5208H93.6426V59.75h9.9911v2.7708h-3.4227v8.6383H97.049V62.5208Z" fill="#fff"/>
          <path d="M75.0363,73.8257h5.8511A4.2728,4.2728,0,0,1,84,74.8363a2.5675,2.5675,0,0,1,.7335,1.858v0.0326a2.6407,2.6407,0,0,1-1.76,2.5425,2.7686,2.7686,0,0,1,2.2655,2.7871v0.0326c0,1.9558-1.5973,3.1456-4.3191,3.1456H75.0363V73.8257Zm6.5846,3.5206c0-.6357-0.5052-0.9779-1.4343-0.9779h-2.07v2.0047h1.9884c0.9616,0,1.5158-.326,1.5158-0.9942V77.3463ZM80.5289,80.59H78.1166v2.1025h2.4448c0.9779,0,1.5158-.3749,1.5158-1.0431V81.6165C82.0773,80.9972,81.5883,80.59,80.5289,80.59Z" fill="#fff"/>
          <path d="M85.7116,73.8257h5.3949a5.0512,5.0512,0,0,1,3.7161,1.2224,3.5623,3.5623,0,0,1,1.01,2.6567v0.0326a3.6146,3.6146,0,0,1-2.3469,3.5205l2.7218,3.9769H92.5733l-2.2981-3.4553H88.8735v3.4553H85.7116V73.8257Zm5.2644,5.4764a1.433,1.433,0,0,0,1.6951-1.3528V77.9167c0-.9128-0.6682-1.3691-1.7114-1.3691H88.8735v2.7545H90.976Z" fill="#fff"/>
          <path d="M99.5324,73.7443H102.58l4.8571,11.4905h-3.39l-0.815-2.0536H98.8153L98,85.2348H94.6917Zm2.7707,6.9758-1.2712-3.2271L99.7443,80.72h2.5589Z" fill="#fff"/>
          <path d="M107.8117,73.8257h3.1619V85.2348h-3.1619V73.8257Z" fill="#fff"/>
          <path d="M111.7558,73.8257h2.95l4.694,6.0306V73.8257h3.1294V85.2348h-2.7545l-4.89-6.2587v6.2587h-3.1293V73.8257Z" fill="#fff"/>
          <path d="M122.7274,83.54l1.76-2.1025a5.9106,5.9106,0,0,0,3.7,1.3691c0.8638,0,1.32-.2934,1.32-0.7824V81.9914c0-.489-0.3749-0.7335-1.9395-1.1084-2.4285-.5541-4.3029-1.2387-4.3029-3.5694V77.2811c0-2.1188,1.6788-3.6509,4.417-3.6509a7.1807,7.1807,0,0,1,4.694,1.5158l-1.5809,2.2329a5.6006,5.6006,0,0,0-3.1946-1.1246c-0.766,0-1.1409.31-1.1409,0.7334V77.02c0,0.5216.3912,0.75,1.9884,1.1083,2.6077,0.57,4.2377,1.418,4.2377,3.5531v0.0326c0,2.3307-1.8418,3.7161-4.6126,3.7161A7.9992,7.9992,0,0,1,122.7274,83.54Z" fill="#fff"/>
        </g>
      </g>
    </g>
  </g>
</svg>

<svg data-name="Layer 1" xmlns="http://www.w3.org/2000/svg" width="263" height="147" viewBox="0 0 263 147"><defs><linearGradient id="a" x1="54.457" y1="122.594" x2="251.779" y2="10.206" gradientUnits="userSpaceOnUse"><stop offset="0" stop-color="#00adee"/><stop offset="1" stop-color="#9f76a6"/></linearGradient><linearGradient id="b" x1="80.247" y1="38.761" x2="241.262" y2="10.951" gradientUnits="userSpaceOnUse"><stop offset="0" stop-color="#ec037c"/><stop offset="1" stop-color="#9f76a6"/></linearGradient><linearGradient id="c" x1="75.721" y1="33.558" x2="127.825" y2="123.939" gradientUnits="userSpaceOnUse"><stop offset="0" stop-color="#ec037c"/><stop offset="1" stop-color="#5c2d90"/></linearGradient><linearGradient id="d" x1="7.465" y1="44.578" x2="129.454" y2="125.081" gradientUnits="userSpaceOnUse"><stop offset="0" stop-color="#44c7f4"/><stop offset="1" stop-color="#5c2d90"/></linearGradient></defs><path d="M261.184 10.362a9.678 9.678 0 00-14.745-8.246L20.694 136.074a4.697 4.697 0 104.133 8.434q.09-.046.178-.097l230.528-125.25a9.653 9.653 0 001.15-.625l.033-.018v-.002a9.668 9.668 0 004.468-8.155z" fill="url(#a)"/><path d="M261.184 10.362a9.678 9.678 0 00-9.678-9.678q-.275 0-.546.016-.25.014-.497.04L76.798 25.42a13.735 13.735 0 106.737 26.564l169.27-32.032a9.636 9.636 0 001.035-.196l.02-.004a9.681 9.681 0 007.324-9.389z" fill="url(#b)"/><path d="M145.203 123.63a17.237 17.237 0 00-3.064-9.425L91.304 32.352a13.737 13.737 0 00-25.19 10.599 13.633 13.633 0 001.042 2.498s45.234 86.37 45.583 86.998q.309.556.656 1.086a17.32 17.32 0 0031.808-9.903z" fill="url(#c)"/><path d="M145.203 123.63a17.298 17.298 0 00-7.63-13.942 17.306 17.306 0 00-2.7-1.491L9.548 38.967a6.064 6.064 0 00-6.507 10.188l114.396 88.704a17.32 17.32 0 0027.766-14.229z" fill="url(#d)"/><path d="M69 51h70v70H69z"/><g fill="#fff"><path d="M75.038 107.875h26.25v4.375h-26.25zm-.295-38.444l2.037-1.923a2.31 2.31 0 001.793 1.06 1.33 1.33 0 001.288-1.598v-7.22h3.145v7.237a4.239 4.239 0 01-1.124 3.21 4.299 4.299 0 01-3.13 1.158 4.66 4.66 0 01-4.01-1.924zm8.997-9.681h9.176v2.673h-6.047v1.744h5.476v2.494h-5.476v1.809h6.128v2.69h-9.258V59.75zm13.309 2.77h-3.406v-2.77h9.99v2.77h-3.422v8.64h-3.162v-8.64zM75.036 73.826h5.851A4.273 4.273 0 0184 74.836a2.567 2.567 0 01.734 1.858v.033a2.64 2.64 0 01-1.76 2.542 2.769 2.769 0 012.265 2.787v.033c0 1.956-1.597 3.146-4.32 3.146h-5.883v-11.41zm6.585 3.52c0-.635-.505-.978-1.434-.978h-2.07v2.005h1.988c.962 0 1.516-.326 1.516-.994v-.033zm-1.092 3.244h-2.412v2.103h2.444c.978 0 1.516-.375 1.516-1.044v-.032c0-.62-.489-1.027-1.548-1.027zm5.183-6.764h5.395a5.051 5.051 0 013.716 1.222 3.562 3.562 0 011.01 2.657v.032a3.615 3.615 0 01-2.347 3.52l2.722 3.978h-3.635l-2.298-3.456h-1.401v3.456h-3.162v-11.41zm5.264 5.476a1.433 1.433 0 001.695-1.353v-.032c0-.913-.668-1.37-1.711-1.37h-2.086v2.755h2.102z"/><path d="M99.532 73.744h3.048l4.857 11.49h-3.39l-.815-2.053h-4.417L98 85.235h-3.308zm2.771 6.976l-1.271-3.227-1.288 3.227h2.56zm5.509-6.894h3.162v11.409h-3.162v-11.41zm3.944 0h2.95l4.694 6.03v-6.03h3.13v11.409h-2.755l-4.89-6.259v6.259h-3.13v-11.41zm10.971 9.714l1.76-2.103a5.91 5.91 0 003.7 1.37c.864 0 1.32-.294 1.32-.783v-.033c0-.489-.375-.733-1.94-1.108-2.428-.554-4.302-1.239-4.302-3.57v-.032c0-2.119 1.679-3.65 4.417-3.65a7.18 7.18 0 014.694 1.515l-1.58 2.233a5.6 5.6 0 00-3.196-1.125c-.765 0-1.14.31-1.14.734v.032c0 .522.39.75 1.988 1.108 2.608.57 4.238 1.418 4.238 3.553v.033c0 2.33-1.842 3.716-4.613 3.716a8 8 0 01-5.346-1.89z"/></g></svg>
